src/assets/svg/icons/fa/nuevos/classic/duotone/diagram-project classic duotone.svg

<svg xmlns="http://www.w3.org/2000/svg" viewBox="0 0 576 512"><!--! Font Awesome Pro 6.4.0 by @fontawesome - https://fontawesome.com License - https://fontawesome.com/license (Commercial License) Copyright 2023 Fonticons, Inc. --><defs><style>.fa-secondary{opacity:.4}</style></defs><path class="fa-primary" d="M0 80C0 53.5 21.5 32 48 32h96c26.5 0 48 21.5 48 48v96c0 26.5-21.5 48-48 48H48c-26.5 0-48-21.5-48-48V80zM224 336c0-26.5 21.5-48 48-48h96c26.5 0 48 21.5 48 48v96c0 26.5-21.5 48-48 48H272c-26.5 0-48-21.5-48-48V336zM432 32h96c26.5 0 48 21.5 48 48v96c0 26.5-21.5 48-48 48H432c-26.5 0-48-21.5-48-48V80c0-26.5 21.5-48 48-48z"/><path class="fa-secondary" d="M144 224l80.3 107c2.5-24.2 22.9-43 47.7-43L191.7 181c-2.5 24.2-22.9 43-47.7 43zm48-64H384V96H192v64z"/></svg>

<svg xmlns="http://www.w3.org/2000/svg" viewBox="0 0 576 512"><defs><style>.fa-secondary{opacity:.4}</style></defs><path class="fa-primary" d="M0 80C0 53.49 21.49 32 48 32H144C170.5 32 192 53.49 192 80V176C192 202.5 170.5 224 144 224H48C21.49 224 0 202.5 0 176V80zM224 336C224 309.5 245.5 288 272 288H368C394.5 288 416 309.5 416 336V432C416 458.5 394.5 480 368 480H272C245.5 480 224 458.5 224 432V336zM528 32C554.5 32 576 53.49 576 80V176C576 202.5 554.5 224 528 224H432C405.5 224 384 202.5 384 176V80C384 53.49 405.5 32 432 32H528z"/><path class="fa-secondary" d="M191.7 180.1L272 288C247.2 288 226.8 306.8 224.3 331L144 224C168.8 224 189.2 205.2 191.7 180.1V180.1zM192 96H384V160H192V96z"/></svg>
